X:1
T:I’ll Tell to All That God Is Love
T:I’ll Tell to All That God Is Love
T:Bentley DeForest Ackley, 1923
T:Alfred Henry Ackley, 1923
T:Public Domain Courtesy of the Cyber Hymnal™
C:Bentley DeForest Ackley, 1923
Z:Public Domain
Z:Courtesy of the Cyber Hymnal™
%%score ( 1 2 ) ( 3 4 )
L:1/8
Q:1/4=112
M:4/4
K:C
V:1 treble 
V:2 treble 
V:3 bass 
V:4 bass 
V:1
 [EG]2 | [Ec]2 [Ec]2 [GB]2 [FA]2 | [FA]2 [EG]2 [EG]2 [Ec][Ed] | [Fc]2 [FB]2 [FA]2 [FB]2 | %4
w: 1.~I’ll|tell to all that|God is love; For the|world has ne- ver|
w: 2.~I’ll|tell of mer- cy’s|bound- less tide, Like the|wa- ters of the|
w: 3.~I’ll|tell of grace that|keeps the soul, Of a-|bid- ing peace with-|
w: 4.~E-|ter- nal glo- ry|is the goal That a-|waits the sons of|
 [Ec]6 [EG]2 | [FA]2 [FA]2 [GB]2 [FA]2 | [FA]2 [EG]2 [Ec]2 [FB][Gc] | [^Fd]2 [Fc]2 [FB]2 [FA]2 | %8
w: known The|great com- pas- sion|of His heart For the|way- ward and the|
w: sea, That|cov- ers ev- ery|sin of man; ’Tis sal-|va- tion full and|
w: in, Of|faith that o- ver-|comes the world, With its|tu- mult and its|
w: light; E-|ter- nal dark- ness,|black as death, For the|child- ren of the|
 [DG]6 ||"^Refrain" [B,E]>[B,D] | C4 [CE]4 | [EG]6 [EG][CE] | [CF]4 [FA]4 | [Fc]6 [FB][Fc] | %14
w: lone.||||||
w: free.|Till the|whole world|knows, Till the|whole world|knows, I will|
w: din.||||||
w: night.||||||
 [^Fd]2 [FA]2 [FA]2 [=FB]2 | [Ec]2 [Fc]2 [Gc]2 [Ac][Ad] | [Ge]4 [Fd]4 | [Ec]6 |] %18
w: ||||
w: shout and sing of|Christ my king, Till the|whole world|knows.|
w: ||||
w: ||||
V:2
 x2 | x8 | x8 | x8 | x8 | x8 | x8 | x8 | x6 || x2 | C4 x4 | x8 | x8 | x8 | x8 | x8 | x8 | x6 |] %18
V:3
 [C,C]2 | [C,G,]2 [C,G,]2 [C,G,]2 [C,C]2 | [C,C]2 [C,C]2 [C,C]2 [C,G,][C,G,] | %3
w: |||
 [D,G,]2 [G,D]2 [G,B,]2 G,2 | [C,G,]6 [C,C]2 | [F,C]2 [F,C]2 [F,C]2 [F,C]2 | %6
w: * * * Till|||
 [C,C]2 [C,C]2 [C,G,]2 [C,G,][E,C] | [D,A,]2 [D,A,]2 [D,D]2 [D,C]2 | [G,B,]6 || [G,,G,]>[G,,F,] | %10
w: |||the world,|
 E,2 E,E, G,2 G,2 | C6 [C,C][C,_B,] | A,2 A,A, C2 C2 | A,2 A,2 A,2 [F,A,][F,A,] | %14
w: till the whole world knows,|Till the world,|till the whole world, whole|world knows, * * *|
 [D,A,]2 [D,D]2 [D,D]2 G,2 | [C,G,]2 [D,G,]2 [E,C]2 [F,C][F,C] | [G,C]4 [G,B,]4 | [C,G,]6 |] %18
w: ||||
V:4
 x2 | x8 | x8 | x6 G,2 | x8 | x8 | x8 | x8 | x6 || x2 | C,4 C,4 | (C,2 C,2 C,2) x2 | F,4 F,4 | %13
 F,6 x2 | x6 G,2 | x8 | x8 | x6 |] %18

